assets/Sailboat/Flat/sailboat_flat.svg

<svg width="32" height="32" viewBox="0 0 32 32" fill="none" xmlns="http://www.w3.org/2000/svg">
<path d="M14 3L22 18L18 18.4679L14 18L13.642 10.5L14 3ZM13 6L8 18L10.5 18.4679L13 18L13.4448 12L13 6Z" fill="#FCD53F"/>
<path d="M9 27L6 22L16.5 21L27 22V27H9Z" fill="#FF8257"/>
<path d="M13.5 2C13.2239 2 13 2.22386 13 2.5V18H7.5C7.22386 18 7 18.2239 7 18.5C7 18.7761 7.22386 19 7.5 19H13V20L13.5 20.2695L14 20V19H22.5C22.7761 19 23 18.7761 23 18.5C23 18.2239 22.7761 18 22.5 18H14V2.5C14 2.22386 13.7761 2 13.5 2Z" fill="white"/>
<path d="M30.01 24C28.26 24 28.26 25 26.5 25C24.75 25 24.75 24 22.99 24C21.24 24 21.25 25 19.5 25C17.75 25 17.74 24 15.99 24C14.24 24 14.25 25 12.5 25C10.75 25 10.74 24 8.99 24C7.24 24 7.24 25 5.5 25C3.75 25 3.75 24 2 24V30H30L30.01 24Z" fill="#00A6ED"/>
<path d="M4 21C4 20.4477 4.44772 20 5 20H27C27.5523 20 28 20.4477 28 21V21C28 21.5523 27.5523 22 27 22H5C4.44772 22 4 21.5523 4 21V21Z" fill="#FF9F2E"/>
</svg>

<svg xmlns="http://www.w3.org/2000/svg" width="32" height="32" fill="none"><path fill="#FCD53F" d="m14 3 8 15-4 .468L14 18l-.358-7.5L14 3Zm-1 3L8 18l2.5.468L13 18l.445-6L13 6Z"/><path fill="#FF8257" d="m9 27-3-5 10.5-1L27 22v5H9Z"/><path fill="#fff" d="M13.5 2a.5.5 0 0 0-.5.5V18H7.5a.5.5 0 0 0 0 1H13v1l.5.27.5-.27v-1h8.5a.5.5 0 0 0 0-1H14V2.5a.5.5 0 0 0-.5-.5Z"/><path fill="#00A6ED" d="M30.01 24c-1.75 0-1.75 1-3.51 1-1.75 0-1.75-1-3.51-1-1.75 0-1.74 1-3.49 1-1.75 0-1.76-1-3.51-1-1.75 0-1.74 1-3.49 1-1.75 0-1.76-1-3.51-1-1.75 0-1.75 1-3.49 1-1.75 0-1.75-1-3.5-1v6h28l.01-6Z"/><path fill="#FF9F2E" d="M4 21a1 1 0 0 1 1-1h22a1 1 0 1 1 0 2H5a1 1 0 0 1-1-1Z"/></svg>
